X: 21
I: linebreak $
T: Cuckolds all a Row
T: for two couples facing
P: ABB x 3
C: 
K: G major
M: 6/4
L: 1/8
P: A
 |: "D"a4a2 a4"Em"g2 | "D"f4g2 a4"G"d2 | "Am"e4e2 "D"f3ef2 |  [1 "G"g6 g6 :|]  [2 "G"g6 g4B2 :: 
P: B
"C"c2d2c2 "G"B2A2B2 | 
"D"A4A2 f2e2f2 | "G"g4d2 "Am"e2"D"d2c2 | "G"B6 G3AB2 | "C"c3dc2 "G"B3AB2 | "D"A4A2 f3ef2 | "G"g4d2 "Am"e2"D"d4 | 
"G"B6 G6 :| 

